symbolic/64x64/apps/kteatime.svg

<svg xmlns="http://www.w3.org/2000/svg" width="64" height="64" version="1">
 <path style="opacity:0.2" d="m 12,16.001286 c 0,1.984631 0.546716,5.999914 0.546716,5.999914 l -4.3475376,0 c -2.3267668,0 -4.19914,1.871973 -4.19914,4.19994 l 0,17.698947 c 0,2.325967 1.8723732,4.099941 4.19914,4.099941 l 8.8006746,0 c 1.969851,0 2.999957,-1.999971 2.999957,-1.999971 C 24.775541,49.999 31.733242,50 36.897968,50 c 10.49985,0 23.10167,-0.399995 23.10167,-33.999514 z m -1.414194,9.999857 2.09757,0 c 0.823988,8.292481 2.661562,13.899001 5.093727,17.671547 -0.349395,0.203997 -0.740789,0.327995 -1.160183,0.327995 l -6.031114,0 c -1.4319793,0 -2.5859628,-1.33798 -2.5859628,-2.999957 l 0,-11.999828 c 0,-1.661976 1.1539835,-2.999957 2.5859628,-2.999957 z"/>
 <path style="fill:#bda461" d="m 12,15.000515 c 0,1.984631 0.546716,5.999914 0.546716,5.999914 l -4.3475376,0 c -2.3267668,0 -4.19914,1.871973 -4.19914,4.19994 l 0,17.698947 c 0,2.325967 1.8723732,4.099941 4.19914,4.099941 l 8.8006746,0 c 1.969851,0 2.999957,-1.999971 2.999957,-1.999971 4.775731,3.998943 11.733432,3.999943 16.898158,3.999943 10.49985,0 23.10167,-0.399995 23.10167,-33.999514 z m -1.414194,9.999857 2.09757,0 c 0.823988,8.292481 2.661562,13.899001 5.093727,17.671547 -0.349395,0.203997 -0.740789,0.327995 -1.160183,0.327995 l -6.031114,0 c -1.4319793,0 -2.5859628,-1.33798 -2.5859628,-2.999957 l 0,-11.999828 c 0,-1.661976 1.1539835,-2.999957 2.5859628,-2.999957 z"/>
 <path style="opacity:0.2;fill:#ffffff" d="m 12,15 c 0,0.280014 0.03013,0.658072 0.04883,1.001953 L 59.988281,16 C 59.990907,15.662976 60,15.343947 60,15 L 12,15 Z M 8.1992188,21 C 5.872452,21 4,22.873205 4,25.201172 l 0,1 c 0,-2.327967 1.872452,-4.199219 4.1992188,-4.199219 l 4.3476562,0 c 0,0 -0.07915,-0.67214 -0.121094,-1.001953 L 8.1992188,21 Z M 8,40 8,41 c 0,1.661977 1.1539582,3 2.585938,3 l 6.03125,0 c 0.419394,0 0.810761,-0.124128 1.160156,-0.328125 C 17.61601,43.42163 17.464572,43.141633 17.308594,42.875 17.087791,42.949217 16.859358,43 16.617188,43 l -6.03125,0 C 9.1539582,43 8,41.661977 8,40 Z"/>
 <path style="fill:#5b6d40" d="m 43.398804,21.000085 c 0,0 -1.810046,1.756106 -3.767571,2.464181 -14.496487,5.243359 -8.382734,15.46148 -8.183336,15.495079 0,0 0.812894,-1.415609 1.910985,-2.222982 6.968146,-5.122561 8.384335,-11.018915 8.384335,-11.018915 0,0 -1.563628,7.095145 -7.76274,11.509911 -1.369169,0.974572 -2.296182,3.374175 -2.688779,5.772555 0,0 0.970533,-0.392117 1.387869,-0.498336 0.162739,-1.062032 0.502996,-2.078984 1.078272,-2.987377 8.664132,1.031552 11.50171,-5.949754 11.872307,-8.384135 0.875994,-5.749955 -2.231982,-10.129921 -2.231982,-10.129921 z"/>
</svg>

<svg xmlns="http://www.w3.org/2000/svg" width="64" height="64" version="1"><path style="opacity:.2" d="M12 16.001c0 1.985.547 6 .547 6H8.199A4.19 4.19 0 0 0 4 26.201v17.7C4 46.225 5.872 48 8.2 48H17c1.97 0 3-2 3-2 4.776 3.999 11.733 4 16.898 4C47.398 50 60 49.6 60 16zm-1.414 10h2.097c.824 8.293 2.662 13.9 5.094 17.672a2.29 2.29 0 0 1-1.16.328h-6.031C9.154 44 8 42.663 8 41V29c0-1.662 1.154-3 2.586-3z"/><path style="fill:#bda461" d="M12 15c0 1.985.547 6 .547 6H8.199A4.19 4.19 0 0 0 4 25.2v17.7C4 45.224 5.872 47 8.2 47H17c1.97 0 3-2 3-2 4.776 3.998 11.733 4 16.898 4C47.398 49 60 48.6 60 15zm-1.414 10h2.097c.824 8.293 2.662 13.9 5.094 17.672a2.29 2.29 0 0 1-1.16.328h-6.031C9.154 43 8 41.662 8 40V28c0-1.662 1.154-3 2.586-3z"/><path style="opacity:.2;fill:#fff" d="M12 15c0 .28.03.658.049 1.002L59.989 16c.002-.337.011-.656.011-1H12zm-3.8 6A4.19 4.19 0 0 0 4 25.201v1c0-2.328 1.872-4.199 4.2-4.199h4.347s-.08-.672-.121-1.002H8.199zM8 40v1c0 1.662 1.154 3 2.586 3h6.031c.42 0 .81-.124 1.16-.328-.161-.25-.312-.53-.468-.797-.221.074-.45.125-.692.125h-6.031C9.154 43 8 41.662 8 40z"/><path style="fill:#5b6d40" d="M43.399 21s-1.81 1.756-3.768 2.464c-14.496 5.244-8.383 15.462-8.183 15.495 0 0 .813-1.415 1.91-2.223 6.969-5.122 8.385-11.019 8.385-11.019s-1.563 7.096-7.763 11.51c-1.369.975-2.296 3.375-2.688 5.773 0 0 .97-.392 1.388-.498.162-1.062.503-2.08 1.078-2.988 8.664 1.032 11.502-5.95 11.872-8.384.876-5.75-2.232-10.13-2.232-10.13z"/></svg>
